src/actions/16/autocorrection.svg

<svg viewBox="0 0 16 16" xmlns="http://www.w3.org/2000/svg">
 <defs>
  <style type="text/css">.ColorScheme-Text {
        color:#2e3440;
      }</style>
 </defs>
 <path class="ColorScheme-Text" d="m3.5 2-0.53125 0.96875-0.96875 0.53125 0.96875 0.53125 0.53125 0.96875 0.53125-0.96875 0.96875-0.53125-0.96875-0.53125-0.53125-0.96875zm7.625 0-9.125 9.125 2.875 2.875 9.125-9.125-2.875-2.875zm0 1.4375 1.4375 1.4375-2.7812 2.7812-1.4375-1.4375 2.7812-2.7812z" fill="currentColor"/>
</svg>

<svg xmlns="http://www.w3.org/2000/svg" viewBox="0 0 16 16">
  <defs id="defs3051">
    <style type="text/css" id="current-color-scheme">
      .ColorScheme-Text {
        color:#2e3440;
      }
      </style>
  </defs>
 <path style="fill:currentColor;fill-opacity:1;stroke:none" 
     d="M 3.5 2 L 2.96875 2.96875 L 2 3.5 L 2.96875 4.03125 L 3.5 5 L 4.03125 4.03125 L 5 3.5 L 4.03125 2.96875 L 3.5 2 z M 11.125 2 L 7.625 5.5 L 7.125 6 L 5.125 8 L 3.625 9.5 L 3.125 10 L 2 11.125 L 4.875 14 L 6 12.875 L 6.5 12.375 L 10 8.875 L 10.5 8.375 L 14 4.875 L 11.125 2 z M 11.125 3.4375 L 12.5625 4.875 L 9.78125 7.65625 L 8.34375 6.21875 L 11.125 3.4375 z "
     class="ColorScheme-Text"
     />
</svg>
